app/clientComponent/section6_contact/images/hi.svg

<svg width="133" height="85" viewBox="0 0 133 85" fill="none" xmlns="http://www.w3.org/2000/svg">
<path d="M95.144 83.368C95.416 83.368 95.552 83.64 95.552 84.184C95.552 84.728 95.416 85 95.144 85C92.0613 85 89.568 84.9547 87.664 84.864L77.736 84.728L66.176 84.864C64.544 84.9547 62.368 85 59.648 85C59.376 85 59.24 84.728 59.24 84.184C59.24 83.64 59.376 83.368 59.648 83.368C63.0933 83.368 65.5867 83.1413 67.128 82.688C68.6693 82.2347 69.712 81.3733 70.256 80.104C70.8 78.8347 71.072 76.7947 71.072 73.984V42.568H24.424V73.984C24.424 76.704 24.696 78.744 25.24 80.104C25.784 81.3733 26.8267 82.2347 28.368 82.688C30 83.1413 32.5387 83.368 35.984 83.368C36.1653 83.368 36.256 83.64 36.256 84.184C36.256 84.728 36.1653 85 35.984 85C32.9013 85 30.4987 84.9547 28.776 84.864L17.488 84.728L7.56 84.864C5.83733 84.9547 3.43467 85 0.352 85C0.170667 85 0.0800002 84.728 0.0800002 84.184C0.0800002 83.64 0.170667 83.368 0.352 83.368C3.616 83.368 6.01867 83.1413 7.56 82.688C9.10133 82.2347 10.144 81.3733 10.688 80.104C11.232 78.744 11.504 76.704 11.504 73.984V11.016C11.504 8.296 11.232 6.30133 10.688 5.032C10.144 3.76266 9.10133 2.90133 7.56 2.44799C6.01867 1.90399 3.66133 1.632 0.488 1.632C0.306667 1.632 0.216 1.36 0.216 0.815998C0.216 0.271999 0.306667 0 0.488 0L7.696 0.135998C11.8667 0.317329 15.1307 0.407995 17.488 0.407995C20.6613 0.407995 24.424 0.317329 28.776 0.135998L35.984 0C36.1653 0 36.256 0.271999 36.256 0.815998C36.256 1.36 36.1653 1.632 35.984 1.632C32.6293 1.632 30.136 1.90399 28.504 2.44799C26.9627 2.992 25.8747 3.944 25.24 5.304C24.696 6.57333 24.424 8.568 24.424 11.288V39.032H71.072V11.288C71.072 8.568 70.8 6.57333 70.256 5.304C69.712 3.944 68.624 2.992 66.992 2.44799C65.4507 1.90399 63.0027 1.632 59.648 1.632C59.376 1.632 59.24 1.36 59.24 0.815998C59.24 0.271999 59.376 0 59.648 0L66.176 0.135998C70.528 0.317329 74.3813 0.407995 77.736 0.407995C80.184 0.407995 83.4933 0.317329 87.664 0.135998L95.144 0C95.416 0 95.552 0.271999 95.552 0.815998C95.552 1.36 95.416 1.632 95.144 1.632C91.88 1.632 89.4773 1.90399 87.936 2.44799C86.4853 2.90133 85.488 3.76266 84.944 5.032C84.4 6.30133 84.128 8.296 84.128 11.016V73.984C84.128 76.704 84.4 78.744 84.944 80.104C85.488 81.3733 86.4853 82.2347 87.936 82.688C89.4773 83.1413 91.88 83.368 95.144 83.368ZM118.09 16.864C115.732 16.864 113.874 16.2293 112.514 14.96C111.244 13.6907 110.61 11.8773 110.61 9.52C110.61 7.25333 111.244 5.53066 112.514 4.35199C113.874 3.08266 115.732 2.44799 118.09 2.44799C120.356 2.44799 122.124 3.08266 123.394 4.35199C124.663 5.53066 125.298 7.25333 125.298 9.52C125.298 11.8773 124.663 13.6907 123.394 14.96C122.215 16.2293 120.447 16.864 118.09 16.864ZM105.578 85C105.306 85 105.17 84.728 105.17 84.184C105.17 83.64 105.306 83.368 105.578 83.368C108.66 83.368 110.7 82.7333 111.698 81.464C112.695 80.1947 113.194 77.7013 113.194 73.984V49.232C113.194 46.1493 112.876 43.928 112.242 42.568C111.607 41.1173 110.519 40.392 108.978 40.392C107.618 40.392 105.85 40.936 103.674 42.024H103.538C103.175 42.024 102.903 41.7973 102.722 41.344C102.54 40.8907 102.586 40.5733 102.858 40.392L122.442 31.28L122.85 31.144C123.212 31.144 123.575 31.3707 123.938 31.824C124.391 32.1867 124.618 32.504 124.618 32.776V35.632C124.436 39.44 124.346 43.928 124.346 49.096V73.984C124.346 77.7013 124.844 80.1947 125.842 81.464C126.93 82.7333 129.015 83.368 132.098 83.368C132.37 83.368 132.506 83.64 132.506 84.184C132.506 84.728 132.37 85 132.098 85C129.831 85 128.018 84.9547 126.658 84.864L118.77 84.728L110.882 84.864C109.612 84.9547 107.844 85 105.578 85Z" fill="white"/>
</svg>

<svg xmlns="http://www.w3.org/2000/svg" width="133" height="85" fill="none" xmlns:v="https://vecta.io/nano"><path d="M95.144 83.368c.272 0 .408.272.408.816s-.136.816-.408.816c-3.083 0-5.576-.045-7.48-.136l-9.928-.136-11.56.136-6.528.136c-.272 0-.408-.272-.408-.816s.136-.816.408-.816c3.445 0 5.939-.227 7.48-.68s2.584-1.315 3.128-2.584.816-3.309.816-6.12V42.568H24.424v31.416c0 2.72.272 4.76.816 6.12.544 1.269 1.587 2.131 3.128 2.584 1.632.453 4.171.68 7.616.68.181 0 .272.272.272.816s-.091.816-.272.816c-3.083 0-5.485-.045-7.208-.136l-11.288-.136-9.928.136L.352 85c-.181 0-.272-.272-.272-.816s.091-.816.272-.816c3.264 0 5.667-.227 7.208-.68s2.584-1.315 3.128-2.584c.544-1.36.816-3.4.816-6.12V11.016c0-2.72-.272-4.715-.816-5.984S9.101 2.901 7.56 2.448c-1.541-.544-3.899-.816-7.072-.816-.181 0-.272-.272-.272-.816S.307 0 .488 0l7.208.136 9.792.272c3.173 0 6.936-.091 11.288-.272L35.984 0c.181 0 .272.272.272.816s-.091.816-.272.816c-3.355 0-5.848.272-7.48.816-1.541.544-2.629 1.496-3.264 2.856-.544 1.269-.816 3.264-.816 5.984v27.744h46.648V11.288c0-2.72-.272-4.715-.816-5.984-.544-1.36-1.632-2.312-3.264-2.856-1.541-.544-3.989-.816-7.344-.816-.272 0-.408-.272-.408-.816S59.376 0 59.648 0l6.528.136c4.352.181 8.205.272 11.56.272 2.448 0 5.757-.091 9.928-.272L95.144 0c.272 0 .408.272.408.816s-.136.816-.408.816c-3.264 0-5.667.272-7.208.816-1.451.453-2.448 1.315-2.992 2.584s-.816 3.264-.816 5.984v62.968c0 2.72.272 4.76.816 6.12.544 1.269 1.541 2.131 2.992 2.584 1.541.453 3.944.68 7.208.68zm22.946-66.504c-2.358 0-4.216-.635-5.576-1.904-1.27-1.269-1.904-3.083-1.904-5.44 0-2.267.634-3.989 1.904-5.168 1.36-1.269 3.218-1.904 5.576-1.904 2.266 0 4.034.635 5.304 1.904 1.269 1.179 1.904 2.901 1.904 5.168 0 2.357-.635 4.171-1.904 5.44-1.179 1.269-2.947 1.904-5.304 1.904zM105.578 85c-.272 0-.408-.272-.408-.816s.136-.816.408-.816c3.082 0 5.122-.635 6.12-1.904s1.496-3.763 1.496-7.48V49.232c0-3.083-.318-5.304-.952-6.664-.635-1.451-1.723-2.176-3.264-2.176-1.36 0-3.128.544-5.304 1.632h-.136c-.363 0-.635-.227-.816-.68s-.136-.771.136-.952l19.584-9.112.408-.136c.362 0 .725.227 1.088.68.453.363.68.68.68.952v2.856c-.182 3.808-.272 8.296-.272 13.464v24.888c0 3.717.498 6.211 1.496 7.48 1.088 1.269 3.173 1.904 6.256 1.904.272 0 .408.272.408.816s-.136.816-.408.816c-2.267 0-4.08-.045-5.44-.136l-7.888-.136-7.888.136c-1.27.091-3.038.136-5.304.136z" fill="#fff"/></svg>
